!!!COM: Bach, Johann Sebastian
!!!CDT: 1685/3//-1750/7/28/
!!!OTL@@DE: Ich dank' dir, Gott, fuer all' Wohltat
!!!AGN: 4-Part Chorale
!!!SCT: BH 223
!!!SCT: BWV 346
**harm	**root	**kern	**kern	**kern	**kern
!	!	!bass	!tenor	!alto	!soprno
*	*Iorgan	*Iorgan	*Iorgan	*Iorgan	*Iorgan
*M4/4	*M4/4	*M4/4	*M4/4	*M4/4	*M4/4
*met(c)	*met(c)	*met(c)	*met(c)	*met(c)	*met(c)
*MM60	*MM60	*MM60	*MM60	*MM60	*MM60
*k[]	*k[]	*k[]	*k[]	*k[]	*k[]
*C:	*C:	*C:	*C:	*C:	*C:
I;	4CC;	4C	8E	4c	4g
.	.	.	8F	.	.
=1	=1	=1	=1	=1	=1
V7d/IV	4CC	4BB-	4G	4c	4e
viib/V	4FF#	4AA	4A	4c	4f#
V;	4GG;	4GG;	4D;	4B;	4g;
Vb	4GG	4BBn	4G	[4d	4g
=2	=2	=2	=2	=2	=2
I	4CC	4C	[4G	8d]	4e
.	.	.	.	4c	.
V	4GG	4GG	8.G]	.	4d
.	.	.	.	8B	.
.	.	.	16F	.	.
I;	4CC;	4CC;	4E;	4G;	4c;
I	4CC	4C	4E	4G	4c
=3	=3	=3	=3	=3	=3
Vb	4GG	4BB	4G	4d	4g
I	4CC	8C	4c	[4e	4g
.	.	8BB	.	.	.
viib/V	4FF#	4AA	4c	8e]	4a
.	.	.	.	8f#	.
V	4GG	4GG	4d	[4g	4b
=4	=4	=4	=4	=4	=4
Ib	4CC	4E	4c	8g]	4cc
.	.	.	.	8f#	.
Ic/V	4GG	4D	4d	[4g	4b
ii7b/V	4AA	4C	4e	4g_	4a
V/V	4DD	4D	8.d	8g]	4a
.	.	.	.	8f#	.
.	.	.	16c	.	.
=5	=5	=5	=5	=5	=5
V;	2GG;	2GG;	2B;	2d;	2g;
r	4r	4r	4r	4r	4r
Ib	4CC	4E	4c	[4e	4g
!!linebreak: 3
=6	=6	=6	=6	=6	=6
ii7b	4DD	4F	4c	8e]	4a
.	.	.	.	[8d	.
V7b/vi	4EE	4GG#	4B	8d]	4b
.	.	.	.	8e	.
vi;	4AA;	4AA;	4A;	4e;	4cc;
I	4CC	4C	4E	[4c	4g
=7	=7	=7	=7	=7	=7
IV	4FF	4.F	4F	8c]	4a
.	.	.	.	8B	.
Ib	8CC	.	4G	8c	4g
viib/ii	8CC#	8E	.	8c#	.
ii	4DD	8D	4A	8d	4f
.	.	8E	.	8c#	.
iib	4DD	8F	4A	[4d	4f
.	.	8D	.	.	.
=8	=8	=8	=8	=8	=8
VI;	2AA;	2A;	2A;	4d]	2e;
.	.	.	.	4c#;	.
r	4r	4r	4r	4r	4r
Ib	4CC	4E	4c	[4g	4ccn
=9	=9	=9	=9	=9	=9
IV	4FF	8F	4c	8g]	4a
.	.	8E	.	16f	.
.	.	.	.	16e	.
viib	4BB	4D	4d	4f	4b
I;	4CC;	4C;	4G;	4e;	4cc;
ii	4DD	[4D	8d	4f	4a
.	.	.	8c	.	.
=10	=10	=10	=10	=10	=10
viioD7/ii	4CC#	8D]	4B-	[4e	4g
.	.	8C#	.	.	.
ii	4DD	4D	4A	8e]	4f
.	.	.	.	[8d	.
VI;	4AA;	4AA;	4A;	8d]	4e;
.	.	.	.	8c#;	.
Vb	4GG	4BBn	[4G	4d	4g
!!linebreak: 3
=11	=11	=11	=11	=11	=11
V7b/ii	4AA	4C#	8G]	4e	4e
.	.	.	[8A	.	.
V7b/ii	4AA	4D#	8A]	4B	4f#
.	.	.	16G	.	.
.	.	.	16F#	.	.
iii;	4EE;	4E;	4E;	4B;	4g;
Ib	8CC	8E	8e	8g	4cc
V7b/V	8DD	8F#	8d	[8a	.
=12	=12	=12	=12	=12	=12
V	4GG	4G	4d	8a]	4b
.	.	.	.	4g	.
V/V	4DD	4D	8.d	.	4a
.	.	.	.	8f#	.
.	.	.	16c	.	.
V;	4GG;	4GG;	4B;	4d;	4g;
Vb	4GG	4BB	4G	4d	4g
=13	=13	=13	=13	=13	=13
I	4CC	8C	4G	4c	8e
.	.	8D	.	.	8f
Ib	8CC	8E	8c	4c	4g
V7/IV	8CC	8C	8B-	.	.
IV	4FF	4F	8.A	8c	4a
.	.	.	.	4f	.
.	.	.	16Bn	.	.
V/IV	4CC	[4C	8.c	.	4g
.	.	.	.	8e	.
.	.	.	16B-	.	.
=14	=14	=14	=14	=14	=14
ii7d	8DD	8C]	8A	4.d	4f
V7b	8GG	8BB	8G	.	.
I	4CC	4C	4G	.	4e
.	.	.	.	[8c	.
ii7b	8DD	4FF	8A	8c]	4d
viic	8BB	.	8D	16B	.
.	.	.	.	16A	.
V	4GG	4GG	8G	4B	4d
.	.	.	8F	.	.
=15	=15	=15	=15	=15	=15
I;	1CC;	1CC;	1E;	1G;	1c;
==	==	==	==	==	==
*-	*-	*-	*-	*-	*-
!!chor2scor: -l 3 -s 0.6 -o %b.pmx
!!!YEC: Copyright 1994, David Huron
!!!YEC: Changes/Additions 2001 by Craig Stuart Sapp
!!!YEN: United States of America
!!!SMA: 371 Bach Chorales, edited by Ludwig Erk, C.F. Peters
!!!PDT: 1850, 1865
!!!ONB: Harmony and Root analysis done manually
